X:49
T:Duncan Johnstone
O:scotland
R:Reel
R:Hornpipe
M:2/4
C:P.M. D. MacLeod
B:CM
K:Amix
e|\
Aeed edde|eABd e2g2|GddB dBBd|egde BdGB|\
Aeed edde|eABd e2g2|eaag egBd|e2A2 A2::\
AB|\
Aaag aeef|gefd e2dB|GddB dBBd|egde BdGB|\
|1  Aaag aeef|gefd e2dB|AAAB egBd|e2A2 A2\
:|2 Aeed edde|eABd e2g2|eaag egBd|e2A2 A2|:\
gf|\
eAA2 Aeed|BAAB e2ge|dGGG dBBd|egde BdGB|\
eAA2 Aeed|BAAB e2g2|eaag egBd|e2A2 A2::\
g2|\
aaag aeeg|aaag e2ef|gaae degf|egde BdGB\
|1  aaag aeef|aaag a2ef|gaag egBd|e2A2 A2\
:|2 e2de Aede|eABd e2g2|eaag egBd|e2A2 A2|]
